cssgg/more.svg

<svg
  width="24"
  height="24"
  viewBox="0 0 24 24"
  fill="none"
  xmlns="http://www.w3.org/2000/svg"
>
  <path
    fill-rule="evenodd"
    clip-rule="evenodd"
    d="M5 15C6.65685 15 8 13.6569 8 12C8 10.3431 6.65685 9 5 9C3.34315 9 2 10.3431 2 12C2 13.6569 3.34315 15 5 15ZM5 13C5.55228 13 6 12.5523 6 12C6 11.4477 5.55228 11 5 11C4.44772 11 4 11.4477 4 12C4 12.5523 4.44772 13 5 13Z"
    fill="currentColor"
  />
  <path
    fill-rule="evenodd"
    clip-rule="evenodd"
    d="M12 15C13.6569 15 15 13.6569 15 12C15 10.3431 13.6569 9 12 9C10.3431 9 9 10.3431 9 12C9 13.6569 10.3431 15 12 15ZM12 13C12.5523 13 13 12.5523 13 12C13 11.4477 12.5523 11 12 11C11.4477 11 11 11.4477 11 12C11 12.5523 11.4477 13 12 13Z"
    fill="currentColor"
  />
  <path
    fill-rule="evenodd"
    clip-rule="evenodd"
    d="M22 12C22 13.6569 20.6569 15 19 15C17.3431 15 16 13.6569 16 12C16 10.3431 17.3431 9 19 9C20.6569 9 22 10.3431 22 12ZM20 12C20 12.5523 19.5523 13 19 13C18.4477 13 18 12.5523 18 12C18 11.4477 18.4477 11 19 11C19.5523 11 20 11.4477 20 12Z"
    fill="currentColor"
  />
</svg>

<svg viewBox="0 0 24 24" xmlns="http://www.w3.org/2000/svg"><g fill-rule="evenodd"><path d="M5 15c1.65 0 3-1.35 3-3 0-1.66-1.35-3-3-3 -1.66 0-3 1.34-3 3 0 1.65 1.34 3 3 3Zm0-2c.55 0 1-.45 1-1 0-.56-.45-1-1-1 -.56 0-1 .44-1 1 0 .55.44 1 1 1Z"/><path d="M12 15c1.65 0 3-1.35 3-3 0-1.66-1.35-3-3-3 -1.66 0-3 1.34-3 3 0 1.65 1.34 3 3 3Zm0-2c.55 0 1-.45 1-1 0-.56-.45-1-1-1 -.56 0-1 .44-1 1 0 .55.44 1 1 1Z"/><path d="M22 12c0 1.65-1.35 3-3 3 -1.66 0-3-1.35-3-3 0-1.66 1.34-3 3-3 1.65 0 3 1.34 3 3Zm-2 0c0 .55-.45 1-1 1 -.56 0-1-.45-1-1 0-.56.44-1 1-1 .55 0 1 .44 1 1Z"/></g></svg>
